T: Angus Chisholm's
M: 2/4
L: 1/8
K: Dmaj
f/g/|:a/^g/a/b/ ad'| f2a2 | d/c/d/e/ fd | A3F | G/F/G/A/ BG | FAdA |1 Be e/f/g/f |
(3e/f/e/ (3d/c/B/ A2f/g/ :|2 B e/f/g/e/ cA | d/c/d/e/ d3:||F/G/|:A/^G/A/B/ Ad |
A2f2 | d/c/d/e/ db |1 a4 | bb aa | gg f2 | g/f/g/a/ g/f/e/d/ | c/d/e/f/ (3e/f/e/ (3d/c/B/ :|
|2a3a/a/ | b A A/A/A/A/  | a A A/A/A/A/ | g/f/e/d/ ca | d3 f/g/|
